assets/svg/1f1f8-1f1f9.svg

<svg xmlns="http://www.w3.org/2000/svg" viewBox="0 0 64 64" enable-background="new 0 0 64 64"><g fill="#83bf4f"><path d="m60 42c-5.523 0-10-4.477-10-10h-39.21v21.21c5.428 5.429 12.928 8.787 21.21 8.787 13.07 0 24.18-8.356 28.29-20.02-.098.003-.193.015-.291.015"/><path d="m60 22c.098 0 .193.012.291.015-4.115-11.659-15.225-20.02-28.29-20.02-8.285 0-15.785 3.358-21.21 8.788v21.21h39.21c0-5.523 4.477-10 10-10"/></g><path fill="#ffe62e" d="m60.29 22h-49.5v20h49.5c1.107-3.129 1.714-6.492 1.714-10s-.607-6.871-1.714-10"/><path fill="#ed4c5c" d="M10.787,10.787C5.358,16.216,2,23.716,2,32s3.358,15.784,8.787,21.213L32,32L10.787,10.787z"/><g fill="#3e4347"><path d="m40 34.12l2.473 1.88-.934-3.052 2.461-1.888-3.049-.01-.951-3.05-.95 3.05-3.05.01 2.461 1.888-.934 3.052z"/><path d="m52 34.12l2.47 1.88-.93-3.052 2.46-1.888-3.049-.01-.951-3.05-.95 3.05-3.05.01 2.46 1.888-.93 3.052z"/></g></svg>

<svg xmlns="http://www.w3.org/2000/svg" width="64" height="64" viewBox="0 0 64 64"><path fill="#83BF4F" d="M60 42c-5.523 0-10-4.477-10-10H10.787v21.213l-.001-.001C16.215 58.642 23.715 62 32 62c13.066 0 24.176-8.356 28.291-20.015-.098.003-.193.015-.291.015zM60 22c.098 0 .193.012.291.015C56.176 10.356 45.066 2 32 2c-8.285 0-15.785 3.358-21.214 8.788l.001-.001V32H50c0-5.523 4.477-10 10-10z"/><path fill="#FFE62E" d="M60.286 22H10.787v20h49.499C61.393 38.871 62 35.508 62 32s-.607-6.871-1.714-10z"/><path fill="#ED4C5C" d="M10.787 10.787C5.358 16.216 2 23.716 2 32s3.358 15.784 8.787 21.213L32 32 10.787 10.787z"/><path fill="#3E4347" d="M40 34.124L42.473 36l-.934-3.052L44 31.056l-3.049-.01L40 28l-.951 3.046-3.049.01 2.461 1.892L37.527 36zM52 34.124L54.473 36l-.934-3.052L56 31.056l-3.049-.01L52 28l-.951 3.046-3.049.01 2.461 1.892L49.527 36z"/></svg>
